anadea-new/source/img/icon-tw.svg

<svg width="20" height="16" viewBox="0 0 20 16" fill="none" xmlns="http://www.w3.org/2000/svg">
<path d="M17.8573 3.94432C17.8651 4.11654 17.8693 4.29016 17.8693 4.46378C17.8693 9.75018 13.8171 15.8438 6.40296 15.8438C4.12718 15.8438 2.00866 15.1836 0.22583 14.048C0.541069 14.0851 0.86195 14.104 1.18706 14.104C3.07567 14.104 4.81266 13.4642 6.1921 12.3916C4.42901 12.3594 2.94027 11.2029 2.42757 9.61296C2.67299 9.65916 2.92616 9.68507 3.18498 9.68507C3.55241 9.68507 3.90926 9.63746 4.24707 9.54575C2.40359 9.1789 1.01499 7.56239 1.01499 5.62314C1.01499 5.60633 1.01499 5.58883 1.01569 5.57273C1.55872 5.87167 2.18003 6.05229 2.84013 6.0726C1.75971 5.3564 1.04813 4.13124 1.04813 2.74366C1.04813 2.00996 1.2463 1.32247 1.59328 0.731596C3.57992 3.15251 6.55035 4.74452 9.8988 4.91254C9.82968 4.6192 9.79513 4.31466 9.79513 4.00032C9.79513 1.79153 11.5991 0 13.8241 0C14.9835 0 16.0294 0.485864 16.7656 1.26297C17.6846 1.08374 18.5449 0.751898 19.3256 0.291938C19.0224 1.22656 18.3856 2.00996 17.5513 2.50563C18.3672 2.40902 19.1458 2.19479 19.8658 1.87625C19.3285 2.67715 18.6451 3.38214 17.8573 3.94432Z" fill="#82919A"/>
</svg>

<svg width="20" height="16" fill="none" xmlns="http://www.w3.org/2000/svg"><path d="M17.857 3.944c.008.173.012.346.012.52 0 5.286-4.052 11.38-11.466 11.38-2.276 0-4.394-.66-6.177-1.796.315.037.636.056.961.056 1.889 0 3.626-.64 5.005-1.712a4.03 4.03 0 01-3.764-2.779 4.091 4.091 0 001.82-.067c-1.844-.367-3.233-1.984-3.233-3.923v-.05c.544.299 1.165.48 1.825.5A3.99 3.99 0 011.593.732 11.47 11.47 0 009.9 4.912 3.967 3.967 0 019.795 4c0-2.208 1.804-4 4.03-4a4.04 4.04 0 012.94 1.263 8.079 8.079 0 002.56-.971 4.023 4.023 0 01-1.774 2.214 8.057 8.057 0 002.315-.63 8.071 8.071 0 01-2.009 2.068z" fill="#82919A"/></svg>
